Newaita-dark/apps/16/com.github.lainsce.palaura.svg

<svg height="16" viewBox="0 0 16 16" width="16" xmlns="http://www.w3.org/2000/svg" xmlns:xlink="http://www.w3.org/1999/xlink"><linearGradient id="a" gradientUnits="userSpaceOnUse" x1="7.93826" x2="7.93826" y1="14.0169685" y2="14.67849050002"><stop offset="0" stop-opacity=".27451"/><stop offset="1" stop-opacity="0"/></linearGradient><linearGradient id="b"><stop offset="0" stop-opacity=".313726"/><stop offset=".222222" stop-opacity=".27451"/><stop offset="1" stop-opacity="0"/></linearGradient><radialGradient id="c" cx="450.908936" cy="189.579361" gradientTransform="matrix(.00000009 -.0390662 -.0703192 -.00000005 25.073043 31.797666)" gradientUnits="userSpaceOnUse" r="21.166656" xlink:href="#b"/><radialGradient id="d" cx="450.908936" cy="189.579361" gradientTransform="matrix(-.00000009 .0390662 .0703192 .00000005 -9.196524 -3.76374)" gradientUnits="userSpaceOnUse" r="21.166656" xlink:href="#b"/><radialGradient id="e" cx="450.908936" cy="189.579361" gradientTransform="matrix(-.00000009 -.0390662 .0703192 -.00000005 -9.196524 31.797666)" gradientUnits="userSpaceOnUse" r="21.166656" xlink:href="#b"/><radialGradient id="f" cx="450.908936" cy="189.579361" gradientTransform="matrix(.00000009 .0390662 -.0703192 .00000005 25.073042 -3.76374)" gradientUnits="userSpaceOnUse" r="21.166656" xlink:href="#b"/><linearGradient id="g" gradientTransform="matrix(.0376748 0 0 .108706 -2.927007 16.820674)" gradientUnits="userSpaceOnUse" x1="306.916656" x2="305.954559" y1="-25.791676" y2="-141.414581"><stop offset="0" stop-color="#f44336"/><stop offset="1" stop-color="#ef5350"/></linearGradient><linearGradient id="h"><stop offset="0" stop-color="#424242"/><stop offset="1" stop-color="#616161"/></linearGradient><linearGradient id="i" gradientTransform="matrix(4.556143 0 0 13.146184 -353.972656 2034.180176)" gradientUnits="userSpaceOnUse" x1="165.484848" x2="165.484848" xlink:href="#h" y1="-25.791672" y2="-141.414581"/><linearGradient id="j" gradientUnits="userSpaceOnUse" x1="8.7651612" x2="8.7651612" xlink:href="#h" y1="14.01696600048" y2="1.4480552201"/><linearGradient id="k" gradientUnits="userSpaceOnUse" x1="275.166326" x2="275.166326" xlink:href="#h" y1="233.49969318561" y2="-168.66647475188"/><linearGradient id="l" gradientUnits="userSpaceOnUse" x1="3.30760950003" x2="3.30760950003" xlink:href="#h" y1="5.25181134375" y2="4.59028956251"/><linearGradient id="m" gradientUnits="userSpaceOnUse" x1="3.30760950003" x2="3.30760950003" xlink:href="#h" y1="10.70936434375" y2="10.04784256251"/><path d="m3.96875 14.015625h7.9375v.664063h-7.9375zm0 0" fill="url(#a)"/><path d="m11.90625 14.015625h1.324219v-.660156h-1.324219zm0 0" fill="url(#c)"/><path d="m3.96875 14.015625h-1.324219v.664063h1.324219zm0 0" fill="url(#d)"/><path d="m3.96875 14.015625h-1.324219v-.660156h1.324219zm0 0" fill="url(#e)"/><path d="m11.90625 14.015625h1.324219v.664063h-1.324219zm0 0" fill="url(#f)"/><path d="m3.308594 1.449219h9.261718c.363282 0 .660157.296875.660157.660156v11.246094c0 .367187-.296875.660156-.660157.660156h-9.261718c-.367188 0-.664063-.292969-.664063-.660156v-11.246094c0-.363281.296875-.660156.664063-.660156zm0 0" fill="url(#g)"/><path d="m400.119292 175.258863c-44.405211 0-80.307296 35.42969-80.307296 79.8349v1360.027676c0 44.405211 35.902085 79.8349 80.307296 79.8349h119.988548v-1519.697476zm0 0" fill="url(#i)" stroke="#212121" stroke-linecap="round" stroke-width="11.338583" transform="scale(.00826902)"/><path d="m3.308594 14.015625c-.367188 0-.664063-.292969-.664063-.660156v-.082031c0 .367187.296875.660156.664063.660156h9.261718c.363282 0 .660157-.292969.660157-.660156v.082031c0 .367187-.296875.660156-.660157.660156zm0 0" fill-opacity=".196078"/><path d="m3.308594 1.449219c-.367188 0-.664063.292969-.664063.660156v.082031c0-.367187.296875-.660156.664063-.660156h9.261718c.363282 0 .660157.292969.660157.660156v-.082031c0-.367187-.296875-.660156-.660157-.660156zm0 0" fill="#e6e6e6" fill-opacity=".937239"/><path d="m3.308594 1.402344c-.394532 0-.710938.316406-.710938.707031v11.246094c0 .390625.316406.707031.710938.707031h9.261718c.390626 0 .707032-.316406.707032-.707031v-11.246094c0-.390625-.316406-.707031-.707032-.707031zm0 .09375h9.261718c.339844 0 .613282.273437.613282.613281v11.246094c0 .339843-.273438.613281-.613282.613281h-9.261718c-.34375 0-.617188-.273438-.617188-.613281v-11.246094c0-.339844.273438-.613281.617188-.613281zm0 0" fill="#212121"/><path d="m10.398438 3.925781c-.945313 0-1.976563.011719-2.835938.628907-.914062.660156-1.445312 1.941406-1.445312 4.164062v1.660156c-.003907.179688.089843.347656.246093.4375s.347657.089844.503907 0 .25-.257812.246093-.4375v-1.660156c0-.296875.011719-.570312.027344-.816406h2.945313v2.476562c-.003907.179688.089843.347656.246093.4375s.347657.089844.503907 0 .25-.257812.246093-.4375v-2.90625c.007813-.046875.007813-.09375 0-.140625v-2.90625c0-.277343-.222656-.5-.496093-.5-.0625 0-.125 0-.1875 0zm-.3125 1.007813v1.96875h-2.804688c.183594-.824219.5-1.273438.867188-1.535156.472656-.34375 1.15625-.417969 1.9375-.433594zm0 0" fill="url(#j)"/><path d="m10.398438 3.925781c-.945313 0-1.976563.011719-2.835938.628907-.914062.660156-1.445312 1.941406-1.445312 4.164062v.167969c0-2.222657.53125-3.5 1.445312-4.160157.859375-.621093 1.890625-.632812 2.835938-.632812h.1875c.273437 0 .496093.222656.496093.5v-.167969c0-.277343-.222656-.5-.496093-.5-.0625 0-.125 0-.1875 0zm-3.054688 2.976563c-.023438.078125-.042969.164062-.0625.25h.039062c.007813-.027344.015626-.054688.023438-.082032h2.742188v-.167968zm3.738281.429687v.140625c.007813-.046875.007813-.09375 0-.140625zm0 0" fill="#fff" fill-opacity=".313726"/><path d="m10.085938 4.929688c-.78125.015624-1.464844.09375-1.9375.433593-.367188.261719-.683594.710938-.867188 1.535157h.085938c.1875-.617188.46875-.980469.78125-1.203126.472656-.34375 1.15625-.417968 1.9375-.4375zm.996093 2.726562v.144531c.007813-.046875.007813-.097656 0-.144531zm-3.941406.242188c-.015625.25-.027344.519531-.027344.816406v.332031c0-.296875.011719-.570313.027344-.816406h2.945313v-.332031zm-1.023437 2.476562v.332031c-.003907.179688.089843.347657.246093.4375.15625.089844.347657.089844.503907 0 .15625-.089843.25-.257812.246093-.4375v-.332031c.003907.179688-.089843.347656-.246093.4375s-.347657.089844-.503907 0-.25-.257812-.246093-.4375zm3.96875 0v.332031c-.003907.179688.089843.347657.246093.4375.15625.089844.347657.089844.503907 0 .15625-.089843.25-.257812.246093-.4375v-.332031c.003907.179688-.089843.347656-.246093.4375s-.347657.089844-.503907 0-.25-.257812-.246093-.4375zm0 0" fill-opacity=".235294"/><path d="m1257.517774 474.757837c-114.319797 0-239.032304 1.417188-342.959393 76.055734-110.54063 79.8349-174.786467 234.780741-174.786467 503.573984v200.76824c-.472396 21.73021 10.865105 42.043232 29.760939 52.908336 18.895834 10.865105 42.043231 10.865105 60.939066 0 18.895834-10.865104 30.233335-31.178126 29.760939-52.908336v-200.76824c0-35.902085 1.417187-68.969795 3.306771-98.730734h356.186477v299.498974c-.472396 21.73021 10.865105 42.043232 29.760939 52.908336 18.895834 10.865105 42.043231 10.865105 60.939066 0 18.895834-10.865104 30.233334-31.178126 29.760939-52.908336v-351.462518c.944791-5.668751.944791-11.337501 0-17.006251v-351.462519c0-33.540106-26.926564-60.46667-59.994274-60.46667-7.558334 0-15.116668 0-22.675002 0zm-37.791668 121.878132v238.087512h-339.180226c22.202605-99.675526 60.466669-154.001049 104.87188-185.651572 57.159899-41.570835 139.829174-50.546357 234.308346-52.43594zm0 0" fill="none" stroke="#212121" stroke-linecap="round" stroke-linejoin="round" stroke-width="11.338583" transform="scale(.00826902)"/><path d="m148.110856-147.506445v359.840637h243.476749c5.874439 0 10.623986-4.749547 10.623986-10.623986v-338.592666c0-5.874439-4.749547-10.623985-10.623986-10.623985zm0 0" style="fill:none;stroke-width:8;stroke-linecap:round;stroke-linejoin:round;stroke-dasharray:16 16;stroke-dashoffset:7.200001;stroke:url(#k)" transform="matrix(.031253 0 0 .031253 0 6.719392)"/><path d="m2.644531 4.589844h1.65625v.660156h-1.65625zm0 0" fill="url(#l)"/><path d="m2.644531 5.25v.25h1.65625v-.25zm0 0" fill-opacity=".235294"/><path d="m2.644531 4.589844v.164062h1.65625v-.164062zm0 0" fill="#fff" fill-opacity=".392157"/><path d="m84.616914-20.514265h52.99494v21.122983h-52.99494zm0 0" fill="none" stroke="#212121" stroke-linecap="round" stroke-linejoin="round" stroke-width="3" transform="matrix(.031253 0 0 .031253 0 5.230976)"/><path d="m2.644531 10.046875h1.65625v.664063h-1.65625zm0 0" fill="url(#m)"/><path d="m2.644531 10.710938v.246093h1.65625v-.246093zm0 0" fill-opacity=".235294"/><path d="m2.644531 10.046875v.167969h1.65625v-.167969zm0 0" fill="#fff" fill-opacity=".392157"/><path d="m84.616914-20.530958h52.99494v21.247971h-52.99494zm0 0" fill="none" stroke="#212121" stroke-linecap="round" stroke-linejoin="round" stroke-width="3" transform="matrix(.031253 0 0 .031253 0 10.688529)"/></svg>

<?xml version="1.0" encoding="UTF-8"?>
<svg xmlns="http://www.w3.org/2000/svg" xmlns:xlink="http://www.w3.org/1999/xlink" width="16px" height="16px" viewBox="0 0 16 16" version="1.1">
<defs>
<linearGradient id="linear0" gradientUnits="userSpaceOnUse" x1="254" y1="233.5" x2="254" y2="254.666672" gradientTransform="matrix(0.031253,0,0,0.031253,-0.00000190753,6.719393)">
<stop offset="0" style="stop-color:rgb(0%,0%,0%);stop-opacity:0.27451;"/>
<stop offset="1" style="stop-color:rgb(0%,0%,0%);stop-opacity:0;"/>
</linearGradient>
<radialGradient id="radial0" gradientUnits="userSpaceOnUse" cx="450.908936" cy="189.579361" fx="450.908936" fy="189.579361" r="21.166656" gradientTransform="matrix(0.0000000870852,-0.0390662,-0.0703192,-0.0000000507693,25.073043,31.797666)">
<stop offset="0" style="stop-color:rgb(0%,0%,0%);stop-opacity:0.313726;"/>
<stop offset="0.222222" style="stop-color:rgb(0%,0%,0%);stop-opacity:0.27451;"/>
<stop offset="1" style="stop-color:rgb(0%,0%,0%);stop-opacity:0;"/>
</radialGradient>
<radialGradient id="radial1" gradientUnits="userSpaceOnUse" cx="450.908936" cy="189.579361" fx="450.908936" fy="189.579361" r="21.166656" gradientTransform="matrix(-0.0000000870852,0.0390662,0.0703192,0.0000000507693,-9.196524,-3.76374)">
<stop offset="0" style="stop-color:rgb(0%,0%,0%);stop-opacity:0.313726;"/>
<stop offset="0.222222" style="stop-color:rgb(0%,0%,0%);stop-opacity:0.27451;"/>
<stop offset="1" style="stop-color:rgb(0%,0%,0%);stop-opacity:0;"/>
</radialGradient>
<radialGradient id="radial2" gradientUnits="userSpaceOnUse" cx="450.908936" cy="189.579361" fx="450.908936" fy="189.579361" r="21.166656" gradientTransform="matrix(-0.0000000870852,-0.0390662,0.0703192,-0.0000000507693,-9.196524,31.797666)">
<stop offset="0" style="stop-color:rgb(0%,0%,0%);stop-opacity:0.313726;"/>
<stop offset="0.222222" style="stop-color:rgb(0%,0%,0%);stop-opacity:0.27451;"/>
<stop offset="1" style="stop-color:rgb(0%,0%,0%);stop-opacity:0;"/>
</radialGradient>
<radialGradient id="radial3" gradientUnits="userSpaceOnUse" cx="450.908936" cy="189.579361" fx="450.908936" fy="189.579361" r="21.166656" gradientTransform="matrix(0.0000000870852,0.0390662,-0.0703192,0.0000000507693,25.073042,-3.76374)">
<stop offset="0" style="stop-color:rgb(0%,0%,0%);stop-opacity:0.313726;"/>
<stop offset="0.222222" style="stop-color:rgb(0%,0%,0%);stop-opacity:0.27451;"/>
<stop offset="1" style="stop-color:rgb(0%,0%,0%);stop-opacity:0;"/>
</radialGradient>
<linearGradient id="linear1" gradientUnits="userSpaceOnUse" x1="306.916656" y1="-25.791676" x2="305.954559" y2="-141.414581" gradientTransform="matrix(0.0376748,0,0,0.108706,-2.927007,16.820674)">
<stop offset="0" style="stop-color:rgb(95.686275%,26.274511%,21.176471%);stop-opacity:1;"/>
<stop offset="1" style="stop-color:rgb(93.725491%,32.549021%,31.37255%);stop-opacity:1;"/>
</linearGradient>
<linearGradient id="linear2" gradientUnits="userSpaceOnUse" x1="165.484848" y1="-25.791672" x2="165.484848" y2="-141.414581" gradientTransform="matrix(4.556143,0,0,13.146184,-353.972656,2034.180176)">
<stop offset="0" style="stop-color:rgb(25.882354%,25.882354%,25.882354%);stop-opacity:1;"/>
<stop offset="1" style="stop-color:rgb(38.039216%,38.039216%,38.039216%);stop-opacity:1;"/>
</linearGradient>
<linearGradient id="linear3" gradientUnits="userSpaceOnUse" x1="1060" y1="1695.118164" x2="1060" y2="175.118118" gradientTransform="matrix(0.00826902,0,0,0.00826902,0,0)">
<stop offset="0" style="stop-color:rgb(25.882354%,25.882354%,25.882354%);stop-opacity:1;"/>
<stop offset="1" style="stop-color:rgb(38.039216%,38.039216%,38.039216%);stop-opacity:1;"/>
</linearGradient>
<linearGradient id="linear4" gradientUnits="userSpaceOnUse" x1="1040" y1="1695.118164" x2="1040" y2="175.118134" gradientTransform="matrix(0.264583,0,0,0.264583,0.00000608626,-214.999756)">
<stop offset="0" style="stop-color:rgb(25.882354%,25.882354%,25.882354%);stop-opacity:1;"/>
<stop offset="1" style="stop-color:rgb(38.039216%,38.039216%,38.039216%);stop-opacity:1;"/>
</linearGradient>
<linearGradient id="linear5" gradientUnits="userSpaceOnUse" x1="105.833344" y1="0.666667" x2="105.833344" y2="-20.499998" gradientTransform="matrix(0.031253,0,0,0.031253,0.000000158961,5.230976)">
<stop offset="0" style="stop-color:rgb(25.882354%,25.882354%,25.882354%);stop-opacity:1;"/>
<stop offset="1" style="stop-color:rgb(38.039216%,38.039216%,38.039216%);stop-opacity:1;"/>
</linearGradient>
<linearGradient id="linear6" gradientUnits="userSpaceOnUse" x1="105.833344" y1="0.666667" x2="105.833344" y2="-20.499998" gradientTransform="matrix(0.031253,0,0,0.031253,0.000000158961,10.688529)">
<stop offset="0" style="stop-color:rgb(25.882354%,25.882354%,25.882354%);stop-opacity:1;"/>
<stop offset="1" style="stop-color:rgb(38.039216%,38.039216%,38.039216%);stop-opacity:1;"/>
</linearGradient>
</defs>
<g id="surface1">
<path style=" stroke:none;fill-rule:nonzero;fill:url(#linear0);" d="M 3.96875 14.015625 L 11.90625 14.015625 L 11.90625 14.679688 L 3.96875 14.679688 Z M 3.96875 14.015625 "/>
<path style=" stroke:none;fill-rule:nonzero;fill:url(#radial0);" d="M 11.90625 14.015625 L 13.230469 14.015625 L 13.230469 13.355469 L 11.90625 13.355469 Z M 11.90625 14.015625 "/>
<path style=" stroke:none;fill-rule:nonzero;fill:url(#radial1);" d="M 3.96875 14.015625 L 2.644531 14.015625 L 2.644531 14.679688 L 3.96875 14.679688 Z M 3.96875 14.015625 "/>
<path style=" stroke:none;fill-rule:nonzero;fill:url(#radial2);" d="M 3.96875 14.015625 L 2.644531 14.015625 L 2.644531 13.355469 L 3.96875 13.355469 Z M 3.96875 14.015625 "/>
<path style=" stroke:none;fill-rule:nonzero;fill:url(#radial3);" d="M 11.90625 14.015625 L 13.230469 14.015625 L 13.230469 14.679688 L 11.90625 14.679688 Z M 11.90625 14.015625 "/>
<path style=" stroke:none;fill-rule:nonzero;fill:url(#linear1);" d="M 3.308594 1.449219 L 12.570312 1.449219 C 12.933594 1.449219 13.230469 1.746094 13.230469 2.109375 L 13.230469 13.355469 C 13.230469 13.722656 12.933594 14.015625 12.570312 14.015625 L 3.308594 14.015625 C 2.941406 14.015625 2.644531 13.722656 2.644531 13.355469 L 2.644531 2.109375 C 2.644531 1.746094 2.941406 1.449219 3.308594 1.449219 Z M 3.308594 1.449219 "/>
<path style="fill-rule:nonzero;fill:url(#linear2);stroke-width:11.338583;stroke-linecap:round;stroke-linejoin:miter;stroke:rgb(12.941177%,12.941177%,12.941177%);stroke-opacity:1;stroke-miterlimit:4;" d="M 400.119292 175.258863 C 355.714081 175.258863 319.811996 210.688553 319.811996 255.093763 L 319.811996 1615.121439 C 319.811996 1659.52665 355.714081 1694.956339 400.119292 1694.956339 L 520.10784 1694.956339 L 520.10784 175.258863 Z M 400.119292 175.258863 " transform="matrix(0.00826902,0,0,0.00826902,0,0)"/>
<path style=" stroke:none;fill-rule:nonzero;fill:rgb(0%,0%,0%);fill-opacity:0.196078;" d="M 3.308594 14.015625 C 2.941406 14.015625 2.644531 13.722656 2.644531 13.355469 L 2.644531 13.273438 C 2.644531 13.640625 2.941406 13.933594 3.308594 13.933594 L 12.570312 13.933594 C 12.933594 13.933594 13.230469 13.640625 13.230469 13.273438 L 13.230469 13.355469 C 13.230469 13.722656 12.933594 14.015625 12.570312 14.015625 Z M 3.308594 14.015625 "/>
<path style=" stroke:none;fill-rule:nonzero;fill:rgb(90.196079%,90.196079%,90.196079%);fill-opacity:0.937239;" d="M 3.308594 1.449219 C 2.941406 1.449219 2.644531 1.742188 2.644531 2.109375 L 2.644531 2.191406 C 2.644531 1.824219 2.941406 1.53125 3.308594 1.53125 L 12.570312 1.53125 C 12.933594 1.53125 13.230469 1.824219 13.230469 2.191406 L 13.230469 2.109375 C 13.230469 1.742188 12.933594 1.449219 12.570312 1.449219 Z M 3.308594 1.449219 "/>
<path style=" stroke:none;fill-rule:nonzero;fill:rgb(12.941177%,12.941177%,12.941177%);fill-opacity:1;" d="M 3.308594 1.402344 C 2.914062 1.402344 2.597656 1.71875 2.597656 2.109375 L 2.597656 13.355469 C 2.597656 13.746094 2.914062 14.0625 3.308594 14.0625 L 12.570312 14.0625 C 12.960938 14.0625 13.277344 13.746094 13.277344 13.355469 L 13.277344 2.109375 C 13.277344 1.71875 12.960938 1.402344 12.570312 1.402344 Z M 3.308594 1.496094 L 12.570312 1.496094 C 12.910156 1.496094 13.183594 1.769531 13.183594 2.109375 L 13.183594 13.355469 C 13.183594 13.695312 12.910156 13.96875 12.570312 13.96875 L 3.308594 13.96875 C 2.964844 13.96875 2.691406 13.695312 2.691406 13.355469 L 2.691406 2.109375 C 2.691406 1.769531 2.964844 1.496094 3.308594 1.496094 Z M 3.308594 1.496094 "/>
<path style=" stroke:none;fill-rule:nonzero;fill:url(#linear3);" d="M 10.398438 3.925781 C 9.453125 3.925781 8.421875 3.9375 7.5625 4.554688 C 6.648438 5.214844 6.117188 6.496094 6.117188 8.71875 L 6.117188 10.378906 C 6.113281 10.558594 6.207031 10.726562 6.363281 10.816406 C 6.519531 10.90625 6.710938 10.90625 6.867188 10.816406 C 7.023438 10.726562 7.117188 10.558594 7.113281 10.378906 L 7.113281 8.71875 C 7.113281 8.421875 7.125 8.148438 7.140625 7.902344 L 10.085938 7.902344 L 10.085938 10.378906 C 10.082031 10.558594 10.175781 10.726562 10.332031 10.816406 C 10.488281 10.90625 10.679688 10.90625 10.835938 10.816406 C 10.992188 10.726562 11.085938 10.558594 11.082031 10.378906 L 11.082031 7.472656 C 11.089844 7.425781 11.089844 7.378906 11.082031 7.332031 L 11.082031 4.425781 C 11.082031 4.148438 10.859375 3.925781 10.585938 3.925781 C 10.523438 3.925781 10.460938 3.925781 10.398438 3.925781 Z M 10.085938 4.933594 L 10.085938 6.902344 L 7.28125 6.902344 C 7.464844 6.078125 7.78125 5.628906 8.148438 5.367188 C 8.621094 5.023438 9.304688 4.949219 10.085938 4.933594 Z M 10.085938 4.933594 "/>
<path style=" stroke:none;fill-rule:nonzero;fill:rgb(100%,100%,100%);fill-opacity:0.313726;" d="M 10.398438 3.925781 C 9.453125 3.925781 8.421875 3.9375 7.5625 4.554688 C 6.648438 5.214844 6.117188 6.496094 6.117188 8.71875 L 6.117188 8.886719 C 6.117188 6.664062 6.648438 5.386719 7.5625 4.726562 C 8.421875 4.105469 9.453125 4.09375 10.398438 4.09375 C 10.460938 4.09375 10.523438 4.09375 10.585938 4.09375 C 10.859375 4.09375 11.082031 4.316406 11.082031 4.59375 L 11.082031 4.425781 C 11.082031 4.148438 10.859375 3.925781 10.585938 3.925781 C 10.523438 3.925781 10.460938 3.925781 10.398438 3.925781 Z M 7.34375 6.902344 C 7.320312 6.980469 7.300781 7.066406 7.28125 7.152344 L 7.320312 7.152344 C 7.328125 7.125 7.335938 7.097656 7.34375 7.070312 L 10.085938 7.070312 L 10.085938 6.902344 Z M 11.082031 7.332031 L 11.082031 7.472656 C 11.089844 7.425781 11.089844 7.378906 11.082031 7.332031 Z M 11.082031 7.332031 "/>
<path style=" stroke:none;fill-rule:nonzero;fill:rgb(0%,0%,0%);fill-opacity:0.235294;" d="M 10.085938 4.929688 C 9.304688 4.945312 8.621094 5.023438 8.148438 5.363281 C 7.78125 5.625 7.464844 6.074219 7.28125 6.898438 L 7.367188 6.898438 C 7.554688 6.28125 7.835938 5.917969 8.148438 5.695312 C 8.621094 5.351562 9.304688 5.277344 10.085938 5.257812 Z M 11.082031 7.65625 L 11.082031 7.800781 C 11.089844 7.753906 11.089844 7.703125 11.082031 7.65625 Z M 7.140625 7.898438 C 7.125 8.148438 7.113281 8.417969 7.113281 8.714844 L 7.113281 9.046875 C 7.113281 8.75 7.125 8.476562 7.140625 8.230469 L 10.085938 8.230469 L 10.085938 7.898438 Z M 6.117188 10.375 L 6.117188 10.707031 C 6.113281 10.886719 6.207031 11.054688 6.363281 11.144531 C 6.519531 11.234375 6.710938 11.234375 6.867188 11.144531 C 7.023438 11.054688 7.117188 10.886719 7.113281 10.707031 L 7.113281 10.375 C 7.117188 10.554688 7.023438 10.722656 6.867188 10.8125 C 6.710938 10.902344 6.519531 10.902344 6.363281 10.8125 C 6.207031 10.722656 6.113281 10.554688 6.117188 10.375 Z M 10.085938 10.375 L 10.085938 10.707031 C 10.082031 10.886719 10.175781 11.054688 10.332031 11.144531 C 10.488281 11.234375 10.679688 11.234375 10.835938 11.144531 C 10.992188 11.054688 11.085938 10.886719 11.082031 10.707031 L 11.082031 10.375 C 11.085938 10.554688 10.992188 10.722656 10.835938 10.8125 C 10.679688 10.902344 10.488281 10.902344 10.332031 10.8125 C 10.175781 10.722656 10.082031 10.554688 10.085938 10.375 Z M 10.085938 10.375 "/>
<path style="fill:none;stroke-width:11.338583;stroke-linecap:round;stroke-linejoin:round;stroke:rgb(12.941177%,12.941177%,12.941177%);stroke-opacity:1;stroke-miterlimit:4;" d="M 1257.517774 474.757837 C 1143.197977 474.757837 1018.48547 476.175025 914.558381 550.813571 C 804.017751 630.648471 739.771914 785.594312 739.771914 1054.387555 L 739.771914 1255.155795 C 739.299518 1276.886005 750.637019 1297.199027 769.532853 1308.064131 C 788.428687 1318.929236 811.576084 1318.929236 830.471919 1308.064131 C 849.367753 1297.199027 860.705254 1276.886005 860.232858 1255.155795 L 860.232858 1054.387555 C 860.232858 1018.48547 861.650045 985.41776 863.539629 955.656821 L 1219.726106 955.656821 L 1219.726106 1255.155795 C 1219.25371 1276.886005 1230.591211 1297.199027 1249.487045 1308.064131 C 1268.382879 1318.929236 1291.530276 1318.929236 1310.426111 1308.064131 C 1329.321945 1297.199027 1340.659445 1276.886005 1340.18705 1255.155795 L 1340.18705 903.693277 C 1341.131841 898.024526 1341.131841 892.355776 1340.18705 886.687026 L 1340.18705 535.224507 C 1340.18705 501.684401 1313.260486 474.757837 1280.192776 474.757837 C 1272.634442 474.757837 1265.076108 474.757837 1257.517774 474.757837 Z M 1219.726106 596.635969 L 1219.726106 834.723481 L 880.54588 834.723481 C 902.748485 735.047955 941.012549 680.722432 985.41776 649.071909 C 1042.577659 607.501074 1125.246934 598.525552 1219.726106 596.635969 Z M 1219.726106 596.635969 " transform="matrix(0.00826902,0,0,0.00826902,0,0)"/>
<path style="fill:none;stroke-width:8;stroke-linecap:round;stroke-linejoin:round;stroke:url(#linear4);stroke-dasharray:16,16;stroke-dashoffset:7.200001;stroke-miterlimit:4;" d="M 148.110856 -147.506445 L 148.110856 212.334192 L 391.587605 212.334192 C 397.462044 212.334192 402.211591 207.584645 402.211591 201.710206 L 402.211591 -136.88246 C 402.211591 -142.756899 397.462044 -147.506445 391.587605 -147.506445 Z M 148.110856 -147.506445 " transform="matrix(0.031253,0,0,0.031253,0,6.719392)"/>
<path style=" stroke:none;fill-rule:nonzero;fill:url(#linear5);" d="M 2.644531 4.589844 L 4.300781 4.589844 L 4.300781 5.25 L 2.644531 5.25 Z M 2.644531 4.589844 "/>
<path style=" stroke:none;fill-rule:nonzero;fill:rgb(0%,0%,0%);fill-opacity:0.235294;" d="M 2.644531 5.25 L 2.644531 5.5 L 4.300781 5.5 L 4.300781 5.25 Z M 2.644531 5.25 "/>
<path style=" stroke:none;fill-rule:nonzero;fill:rgb(100%,100%,100%);fill-opacity:0.392157;" d="M 2.644531 4.589844 L 2.644531 4.753906 L 4.300781 4.753906 L 4.300781 4.589844 Z M 2.644531 4.589844 "/>
<path style="fill:none;stroke-width:3;stroke-linecap:round;stroke-linejoin:round;stroke:rgb(12.941177%,12.941177%,12.941177%);stroke-opacity:1;stroke-miterlimit:4;" d="M 84.616914 -20.514265 L 137.611854 -20.514265 L 137.611854 0.608718 L 84.616914 0.608718 Z M 84.616914 -20.514265 " transform="matrix(0.031253,0,0,0.031253,0.000000158961,5.230976)"/>
<path style=" stroke:none;fill-rule:nonzero;fill:url(#linear6);" d="M 2.644531 10.046875 L 4.300781 10.046875 L 4.300781 10.710938 L 2.644531 10.710938 Z M 2.644531 10.046875 "/>
<path style=" stroke:none;fill-rule:nonzero;fill:rgb(0%,0%,0%);fill-opacity:0.235294;" d="M 2.644531 10.710938 L 2.644531 10.957031 L 4.300781 10.957031 L 4.300781 10.710938 Z M 2.644531 10.710938 "/>
<path style=" stroke:none;fill-rule:nonzero;fill:rgb(100%,100%,100%);fill-opacity:0.392157;" d="M 2.644531 10.046875 L 2.644531 10.214844 L 4.300781 10.214844 L 4.300781 10.046875 Z M 2.644531 10.046875 "/>
<path style="fill:none;stroke-width:3;stroke-linecap:round;stroke-linejoin:round;stroke:rgb(12.941177%,12.941177%,12.941177%);stroke-opacity:1;stroke-miterlimit:4;" d="M 84.616914 -20.530958 L 137.611854 -20.530958 L 137.611854 0.717013 L 84.616914 0.717013 Z M 84.616914 -20.530958 " transform="matrix(0.031253,0,0,0.031253,0.000000158961,10.688529)"/>
</g>
</svg>
